X:30
T:Patriots
C:Roy Watrous, 1950
S:The Watrous Book, 1992
M:2/4
L:1/16
Q:1/4=90
K:Bm
%%MIDI program 72
%%MIDI transpose 8
%%MIDI ratio 3 1
Tf2B2 Bcde|Tf2B2 Bcdf|e2ef edcB|ABcd e2de|Tf2B2 Bcde|
f2ga b2ag|fbag fede|Tf2B2 B4::b2bb b2ag|fefg afdA|a2aa a2gf|
edcd e2de|Tf2B2 Bcde|f2ga b2ag|fbag fede|Tf2B2 B4:|]

